img/t1.svg

<svg width="24" height="22" viewBox="0 0 24 22" fill="none" xmlns="http://www.w3.org/2000/svg">
<path d="M11.7315 21.8118C8.99182 20.179 6.44506 18.2537 4.13777 16.0711C2.50892 14.5128 1.26494 12.61 0.500906 10.5082C-0.864253 6.40921 0.724878 1.72466 5.16164 0.333933C7.50345 -0.375701 10.0504 0.0599262 12.0088 1.50507C13.9679 0.0615424 16.514 -0.373943 18.8559 0.333933C23.2927 1.72466 24.8925 6.40921 23.5273 10.5082C22.7695 12.608 21.5329 14.5106 19.9118 16.0711C17.6024 18.2513 15.0559 20.1764 12.3181 21.8118L12.0194 22L11.7315 21.8118Z" fill="#FFCF5E"/>
<path d="M12.0132 22L11.7313 21.8118C8.98831 20.1791 6.438 18.2539 4.12697 16.0711C2.4904 14.515 1.23901 12.612 0.468776 10.5082C-0.885718 6.40924 0.703412 1.72469 5.14018 0.333963C7.48199 -0.375671 10.0625 0.0602897 12.0132 1.51753V22Z" fill="url(#paint0_linear)"/>
<path d="M19.4765 8.10431C19.2354 8.08934 19.011 7.97309 18.8556 7.78281C18.7003 7.59254 18.6278 7.34494 18.6551 7.09803C18.6811 6.28477 18.2016 5.54453 17.462 5.25652C16.9931 5.133 16.7091 4.64295 16.8264 4.15967C16.9377 3.68416 17.3992 3.38849 17.863 3.49552C17.9215 3.50489 17.9779 3.52537 18.0292 3.5559C19.5121 4.10651 20.4721 5.58842 20.3957 7.20872C20.3933 7.4543 20.2941 7.68835 20.1207 7.8572C19.9474 8.02606 19.7149 8.11524 19.4765 8.10431Z" fill="url(#paint1_linear)"/>
<defs>
<linearGradient id="paint0_linear" x1="-39.5" y1="10" x2="1.61342" y2="-20.2482" gradientUnits="userSpaceOnUse">
<stop stop-color="#FECA52"/>
<stop offset="0.515625" stop-color="#FFCE5F"/>
<stop offset="1" stop-color="#FF644E"/>
</linearGradient>
<linearGradient id="paint1_linear" x1="18.6" y1="3.47363" x2="18.6" y2="8.10521" gradientUnits="userSpaceOnUse">
<stop stop-color="#FECA52"/>
<stop offset="1" stop-color="#FBBA00"/>
</linearGradient>
</defs>
</svg>

<svg width="24" height="22" viewBox="0 0 24 22" fill="none" xmlns="http://www.w3.org/2000/svg"><path d="M11.732 21.812a43.325 43.325 0 0 1-7.594-5.74A14.61 14.61 0 0 1 .5 10.507C-.864 6.41.725 1.725 5.16.334a7.76 7.76 0 0 1 6.848 1.171A7.77 7.77 0 0 1 18.856.334c4.437 1.39 6.036 6.075 4.671 10.174a14.608 14.608 0 0 1-3.615 5.563 43.722 43.722 0 0 1-7.594 5.74L12.02 22l-.287-.188z" fill="#FFCF5E"/><path d="M12.013 22l-.282-.188a43.404 43.404 0 0 1-7.604-5.74 14.61 14.61 0 0 1-3.658-5.564C-.886 6.41.703 1.725 5.14.334c2.342-.71 4.923-.274 6.873 1.184V22z" fill="url(#a)"/><path d="M19.477 8.104a.872.872 0 0 1-.621-.321.924.924 0 0 1-.2-.685 1.903 1.903 0 0 0-1.194-1.841.908.908 0 0 1-.636-1.097.87.87 0 0 1 1.037-.664.47.47 0 0 1 .166.06c1.483.55 2.443 2.032 2.367 3.653a.918.918 0 0 1-.275.648.866.866 0 0 1-.644.247z" fill="url(#b)"/><defs><linearGradient id="a" x1="-39.5" y1="10" x2="1.613" y2="-20.248" gradientUnits="userSpaceOnUse"><stop stop-color="#FECA52"/><stop offset=".516" stop-color="#FFCE5F"/><stop offset="1" stop-color="#FF644E"/></linearGradient><linearGradient id="b" x1="18.6" y1="3.474" x2="18.6" y2="8.105" gradientUnits="userSpaceOnUse"><stop stop-color="#FECA52"/><stop offset="1" stop-color="#FBBA00"/></linearGradient></defs></svg>
